svg/format_indent_decrease.svg

<svg xmlns="http://www.w3.org/2000/svg" viewBox="0 0 24 24"><path d="M11 13h10v-2H11m0-2h10V7H11M3 3v2h18V3M3 21h18v-2H3m0-7 4 4V8m4 9h10v-2H11z"/></svg>

<?xml version="1.0" encoding="UTF-8"?><!DOCTYPE svg PUBLIC "-//W3C//DTD SVG 1.1//EN" "http://www.w3.org/Graphics/SVG/1.1/DTD/svg11.dtd"><svg xmlns="http://www.w3.org/2000/svg" xmlns:xlink="http://www.w3.org/1999/xlink" version="1.1" id="mdi-format-indent-decrease" width="24" height="24" viewBox="0 0 24 24"><path d="M11,13H21V11H11M11,9H21V7H11M3,3V5H21V3M3,21H21V19H3M3,12L7,16V8M11,17H21V15H11V17Z" /></svg>
